src/actions/22/node-type-cusp.svg

<svg xmlns="http://www.w3.org/2000/svg" viewBox="0 0 22 22">
  <defs id="defs3051">
    <style type="text/css" id="current-color-scheme">
      .ColorScheme-Text {
        color:#363636;
      }
      .ColorScheme-Highlight {
        color:#3daee9;
      }
      </style>
  </defs>
 <path 
     style="fill:currentColor;fill-opacity:1;stroke:none" 
     d="M 1.0019531 3 L 1 3.0019531 L 1 3.9980469 L 1.0019531 4 L 1.9980469 4 L 2 3.9980469 L 2 4.0039062 C 6.31303 4.7540162 9.6245038 10.166799 9.9648438 16.792969 L 10.894531 15.863281 C 10.271501 9.0998913 6.64491 3.70025 2 3 L 1.9980469 3 L 1.0019531 3 z M 10 3 L 10 6 L 11 6 L 11 7 L 12 7 L 12 6 L 13 6 L 13 3 L 10 3 z M 20 3 C 19.995 10.06463 16.606408 15.999241 12.111328 16.869141 L 12.414062 17.171875 L 12 17.585938 L 12 17.925781 C 17.11011 17.155401 21.00033 10.70378 21 3 L 20 3 z M 11 4 L 12 4 L 12 5 L 11 5 L 11 4 z M 11 8 L 11 9 L 12 9 L 12 8 L 11 8 z M 11 10 L 11 11 L 12 11 L 12 10 L 11 10 z M 18 16 L 18 17 L 17 17 L 17 18 L 18 18 L 18 19 L 21 19 L 21 16 L 18 16 z M 15 17 L 15 18 L 16 18 L 16 17 L 15 17 z M 19 17 L 20 17 L 20 18 L 19 18 L 19 17 z M 9.9902344 17.576172 C 9.9922344 17.688102 10 17.797646 10 17.910156 L 10.324219 17.910156 L 9.9902344 17.576172 z "
     class="ColorScheme-Text"
     />
 <path 
     style="fill:currentColor;fill-opacity:1;stroke:none" 
     d="M 11 14.34375 L 8.171875 17.171875 L 11 20 L 13.828125 17.171875 L 11 14.34375 z M 11 15.757812 L 12.414062 17.171875 L 11 18.585938 L 9.5859375 17.171875 L 11 15.757812 z "
     class="ColorScheme-Highlight"
     />
</svg>

<svg xmlns="http://www.w3.org/2000/svg" viewBox="0 0 22 22">
    <path d="M1.002 3 1 3.002v.996L1.002 4h.996L2 3.998v.006c4.313.75 7.625 6.163 7.965 12.789l.93-.93C10.272 9.1 6.645 3.7 2 3h-.998zM10 3v3h1v1h1V6h1V3h-3zm10 0c-.005 7.065-3.394 13-7.889 13.87l.303.302-.414.414v.34c5.11-.77 9-7.222 9-14.926h-1zm-9 1h1v1h-1V4zm0 4v1h1V8h-1zm0 2v1h1v-1h-1zm7 6v1h-1v1h1v1h3v-3h-3zm-3 1v1h1v-1h-1zm4 0h1v1h-1v-1zm-9.01.576c.002.112.01.222.01.334h.324l-.334-.334z" style="fill:currentColor;fill-opacity:1;stroke:none;color:#050505;opacity:.7"/>
    <path d="m11 14.344-2.828 2.828L11 20l2.828-2.828L11 14.344zm0 1.414 1.414 1.414L11 18.586l-1.414-1.414L11 15.758z" style="fill:currentColor;fill-opacity:1;stroke:none;color:#a0b6cb"/>
</svg>
